X: 24100
T: Long Road Home
R: polka
M: 2/4
K: Amixolydian
|:{g}A2{g}AB|{g}c2{dc}Bc|{g}e2{fe}cA|{g}B2{cB}AB|
{g}c2{dc}Bc|{g}e2{fe}cA|{g}B3A|{g}A3e:|
|:a2fe|f2af|{g}e2{fe}cA|{g}B2{cB}AB|{g}c2{dc}Bc|
{g}e2{fe}cA|1 {g}B3A|{g}B3e:|2 {g}B3G|{g}A3e||

